surround-sound-3-1.svg

<svg fill="currentColor" viewBox="0 0 24 24"><path d="M14 17h-2v-2h2zm6-10v10h-2V9h-2V7zm-10 8c0 1.1-.9 2-2 2H4v-2h4v-2H6v-2h2V9H4V7h4c1.1 0 2 .9 2 2v1.5c0 .8-.7 1.5-1.5 1.5.8 0 1.5.7 1.5 1.5z"/></svg>

<svg  viewBox="0 0 24 24" fill="currentColor"><path  d="M14 17H12V15H14V17M20 7V17H18V9H16V7H20M10 15C10 16.1 9.1 17 8 17H4V15H8V13H6V11H8V9H4V7H8C9.1 7 10 7.9 10 9V10.5C10 11.3 9.3 12 8.5 12C9.3 12 10 12.7 10 13.5V15"/></svg>
